; HEADER_BLOCK_START
; generated by Creality_Print V5.1.6.10470 on 2024-11-19 at 11:04:59
; total layer number: 55
; filament_density: 1.24
; filament_diameter: 1.75
; max_z_height: 11.00
; HEADER_BLOCK_END

; MINX = 84.67
; MINY = 85.67
; MINZ = 0.00
; MAXX = 135.47
; MAXY = 125.52
; MAXZ = 11.06

; THUMBNAIL_BLOCK_START

;
; THUMBNAIL_BLOCK_END

; THUMBNAIL_BLOCK_START

;
; THUMBNAIL_BLOCK_END

; external perimeters extrusion width = 0.42mm
; perimeters extrusion width = 0.45mm
; infill extrusion width = 0.45mm
; solid infill extrusion width = 0.42mm
; top infill extrusion width = 0.42mm
; first layer extrusion width = 0.55mm

; EXECUTABLE_BLOCK_START
EXCLUDE_OBJECT_DEFINE NAME=titizinho.stl_id_0_copy_0 CENTER=110.069,105.595 POLYGON=[[84.6685,100.914],[85.1566,97.9405],[86.602,95.0816],[88.9492,92.4468],[92.108,90.1373],[95.957,88.2421],[100.348,86.8337],[105.113,85.9665],[110.069,85.6736],[115.024,85.9665],[119.789,86.8337],[124.18,88.2421],[128.029,90.1373],[131.188,92.4468],[133.535,95.0816],[134.98,97.9405],[135.469,100.914],[134.98,103.887],[133.535,106.746],[131.188,109.381],[113.661,124.029],[112.891,124.661],[112.013,125.13],[111.06,125.419],[110.069,125.517],[109.077,125.419],[108.124,125.13],[107.246,124.661],[106.476,124.029],[88.9492,109.381],[86.602,106.746],[85.1566,103.887],[84.6685,100.914]]
M73 P0 R13
M106 S0
M106 P2 S0
;TYPE:Custom
M140 S0
M104 S0
START_PRINT EXTRUDER_TEMP=220 BED_TEMP=65
G90
G21
M83 ; use relative distances for extrusion
; filament start gcode
M106 S0
;LAYER_CHANGE
;Z:0.2
;HEIGHT:0.2
;BEFORE_LAYER_CHANGE
;0.2
G92 E0

;AFTER_LAYER_CHANGE
;0.2
;_SET_FAN_SPEED_CHANGING_LAYER
SET_VELOCITY_LIMIT ACCEL=2000 ACCEL_TO_DECEL=500
SET_VELOCITY_LIMIT SQUARE_CORNER_VELOCITY=15
; printing object titizinho.stl id:0 copy 0
G1 E-.5 F2400
EXCLUDE_OBJECT_START NAME=titizinho.stl_id_0_copy_0
G1 X88.201 Y95.852 F30000
G1 Z.4
G1 Z.2
G1 E.5 F2400
;TYPE:Brim
;WIDTH:0.55
G1 F6000
G1 X88.611 Y95.495 E.02176
G1 X89.095 Y95.129 E.02432
G1 X89.563 Y94.825 E.02235
G1 X90.094 Y94.532 E.02429
G1 X90.609 Y94.294 E.02273
G1 X91.182 Y94.078 E.02452
G1 X91.728 Y93.916 E.02283
G1 X92.339 Y93.783 E.02504
G1 X92.899 Y93.702 E.02264
G1 X93.547 Y93.656 E.02602
G1 X94.186 Y93.651 E.02561
G1 X95.062 Y93.711 E.03515
G1 X95.677 Y93.797 E.02489
G1 X96.385 Y93.945 E.02899
G1 X97.135 Y94.163 E.03126
G1 X97.293 Y94.158 E.00635
G1 X97.909 Y93.931 E.0263
G1 X98.497 Y93.812 E.02401
G1 X98.969 Y93.782 E.01895
G1 X100.196 Y93.782 E.04914
G1 X100.8 Y93.83 E.02429
G1 X101.378 Y93.969 E.02379
G1 X102.093 Y94.282 E.03129
G1 X102.308 Y94.277 E.0086
G1 X102.749 Y94.058 E.01974
G1 X103.314 Y93.881 E.02372
G1 X104.182 Y93.782 E.035
G1 X106.914 Y93.782 E.10942
G1 X107.518 Y93.83 E.02429
G1 X108.099 Y93.969 E.02389
G1 X108.649 Y94.197 E.02387
G1 X109.206 Y94.542 E.02622
G1 X109.728 Y94.989 E.02755
G1 X109.873 Y95.05 E.0063
G1 X110.078 Y94.97 E.00879
G1 X110.201 Y94.838 E.00724
G1 X110.598 Y94.523 E.02032
G1 X111.209 Y94.158 E.0285
G1 X111.764 Y93.943 E.02383
G1 X112.349 Y93.817 E.02395
G1 X112.863 Y93.782 E.02066
G1 X115.651 Y93.782 E.11169
G1 X116.256 Y93.83 E.02429
G1 X116.835 Y93.969 E.02387
G1 X117.425 Y94.217 E.02563
G1 X118.012 Y94.577 E.02757
G1 X118.464 Y94.971 E.02401
G1 X118.608 Y95.033 E.0063
G1 X118.8 Y94.968 E.00811
G1 X119.19 Y94.617 E.02102
G1 X119.82 Y94.222 E.02978
G1 X120.368 Y93.986 E.02391
G1 X120.945 Y93.839 E.02386
G1 X121.603 Y93.782 E.02645
G1 X124.376 Y93.782 E.11108
G1 X124.981 Y93.83 E.02429
G1 X125.561 Y93.969 E.02389
G1 X126.112 Y94.197 E.02387
G1 X126.668 Y94.542 E.02622
G1 X127.19 Y94.989 E.02755
G1 X127.336 Y95.05 E.0063
G1 X127.54 Y94.97 E.00879
G1 X127.663 Y94.839 E.00718
G1 X128.152 Y94.46 E.02481
G1 X128.67 Y94.158 E.02401
G1 X129.227 Y93.943 E.02389
G1 X129.811 Y93.817 E.02395
G1 X130.326 Y93.782 E.02066
G1 X131.577 Y93.782 E.05013
G1 X132.182 Y93.83 E.02429
G1 X132.76 Y93.969 E.02381
G1 X133.431 Y94.26 E.02931
G1 X134.011 Y94.635 E.02768
G1 X134.451 Y95.037 E.02384
G1 X134.822 Y95.503 E.02389
G1 X135.117 Y96.022 E.02389
G1 X135.325 Y96.58 E.02384
G1 X135.454 Y97.245 E.02716
G1 X135.477 Y97.928 E.02737
G1 X135.398 Y98.519 E.02388
G1 X135.244 Y99.05 E.02215
G1 X131.377 Y109.487 E.44582
G1 X131.122 Y110.037 E.02429
G1 X130.79 Y110.533 E.02389
G1 X130.384 Y110.971 E.02395
G1 X129.979 Y111.296 E.02079
G1 X129.369 Y111.663 E.02851
G1 X128.815 Y111.879 E.02383
G1 X128.231 Y112.007 E.02395
G1 X127.705 Y112.043 E.02112
G1 X126.847 Y112.043 E.03435
G1 X126.243 Y111.996 E.02429
G1 X125.663 Y111.856 E.02389
G1 X125.111 Y111.628 E.02393
G1 X124.918 Y111.512 E.009
G1 X124.765 Y111.476 E.0063
G1 X124.665 Y111.507 E.00419
G1 X124.416 Y111.644 E.01139
G1 X123.855 Y111.846 E.02389
G1 X123.266 Y111.959 E.02401
G1 X122.843 Y111.982 E.01699
G1 X121.361 Y111.982 E.05935
G1 X120.756 Y111.935 E.02429
G1 X120.177 Y111.796 E.02386
G1 X119.573 Y111.54 E.02626
G1 X118.988 Y111.178 E.02759
G1 X118.808 Y111.02 E.0096
G1 X118.663 Y110.957 E.0063
G1 X118.471 Y111.022 E.00814
G1 X118.33 Y111.149 E.00759
G1 X117.7 Y111.543 E.02976
G1 X117.152 Y111.779 E.02391
G1 X116.575 Y111.926 E.02386
G1 X115.917 Y111.982 E.02644
G1 X114.427 Y111.982 E.0597
G1 X113.822 Y111.935 E.02429
G1 X113.245 Y111.796 E.02376
G1 X112.476 Y111.453 E.03375
G1 X112.32 Y111.436 E.0063
G1 X111.908 Y111.662 E.0188
G1 X111.353 Y111.879 E.02389
G1 X110.769 Y112.007 E.02395
G1 X110.243 Y112.043 E.02112
G1 X109.385 Y112.043 E.03435
G1 X108.78 Y111.996 E.02429
G1 X108.2 Y111.856 E.02389
G1 X107.65 Y111.628 E.02387
G1 X107.091 Y111.282 E.02634
G1 X106.63 Y110.9 E.02399
G1 X106.236 Y110.451 E.02389
G1 X106.149 Y110.314 E.00652
G1 X106.028 Y110.213 E.0063
G1 X105.871 Y110.204 E.0063
G1 X105.767 Y110.259 E.00474
G1 X105.556 Y110.446 E.0113
G1 X105.095 Y110.798 E.02321
G1 X104.799 Y110.99 E.01412
G1 X104.307 Y111.262 E.02252
G1 X103.978 Y111.415 E.01453
G1 X103.481 Y111.606 E.02135
G1 X103.119 Y111.717 E.01514
G1 X102.636 Y111.833 E.0199
G1 X102.244 Y111.901 E.01595
G1 X101.791 Y111.952 E.01825
G1 X101.145 Y111.982 E.02591
G1 X98.971 Y111.982 E.08708
G1 X98.366 Y111.935 E.0243
G1 X97.789 Y111.796 E.02381
G1 X97.244 Y111.559 E.02379
G1 X97.063 Y111.552 E.00726
G1 X96.443 Y111.758 E.02616
G1 X96.032 Y111.869 E.01707
G1 X95.61 Y111.961 E.01726
G1 X94.987 Y112.057 E.02526
G1 X94.581 Y112.095 E.01635
G1 X93.944 Y112.119 E.02552
G1 X92.945 Y112.062 E.04009
G1 X92.372 Y111.977 E.02318
G1 X91.761 Y111.84 E.02511
G1 X91.203 Y111.67 E.02333
G1 X90.627 Y111.447 E.02474
G1 X90.111 Y111.203 E.02289
G1 X89.575 Y110.9 E.02465
G1 X89.113 Y110.593 E.02222
G1 X88.622 Y110.216 E.02481
G1 X88.221 Y109.861 E.02142
G1 X87.78 Y109.414 E.02515
G1 X87.444 Y109.025 E.0206
G1 X87.058 Y108.514 E.02565
G1 X86.784 Y108.102 E.01983
G1 X86.458 Y107.532 E.02629
G1 X86.245 Y107.104 E.01914
G1 X85.982 Y106.483 E.02704
G1 X85.828 Y106.046 E.01854
G1 X85.634 Y105.377 E.0279
G1 X85.534 Y104.938 E.01803
G1 X85.414 Y104.228 E.02887
G1 X85.365 Y103.791 E.01759
G1 X85.323 Y103.045 E.02996
G1 X85.323 Y102.619 E.01706
G1 X85.362 Y101.878 E.02972
G1 X85.409 Y101.445 E.01744
G1 X85.525 Y100.743 E.02849
G1 X85.624 Y100.302 E.0181
G1 X85.813 Y99.644 E.02741
G1 X85.969 Y99.202 E.0188
G1 X86.225 Y98.593 E.02647
G1 X86.441 Y98.156 E.01953
G1 X86.761 Y97.601 E.02567
G1 X87.042 Y97.179 E.02029
G1 X87.421 Y96.682 E.02504
G1 X87.767 Y96.286 E.02106
G1 X88.173 Y95.88 E.02298
G1 X88.531 Y96.239 F30000
G1 F6000
G1 X88.543 Y96.227 E.00069
G1 X88.935 Y95.886 E.02078
G1 X89.382 Y95.548 E.02247
G1 X89.829 Y95.258 E.02134
G1 X90.318 Y94.987 E.0224
G1 X90.8 Y94.764 E.02126
G1 X91.338 Y94.561 E.02305
G1 X91.86 Y94.407 E.02179
G1 X92.424 Y94.283 E.02313
G1 X92.948 Y94.207 E.02118
G1 X93.562 Y94.163 E.02467
G1 X94.176 Y94.159 E.02462
G1 X95.004 Y94.215 E.03322
G1 X95.584 Y94.296 E.02349
G1 X96.268 Y94.439 E.02797
G1 X96.981 Y94.647 E.02976
G1 X97.164 Y94.67 E.00739
G1 X97.479 Y94.63 E.01272
G1 X98.037 Y94.425 E.02382
G1 X98.574 Y94.315 E.02193
G1 X98.989 Y94.29 E.01666
G1 X100.17 Y94.29 E.04729
G1 X100.709 Y94.331 E.02166
G1 X101.202 Y94.448 E.02031
G1 X101.874 Y94.74 E.02934
G1 X102.122 Y94.789 E.01011
G1 X102.303 Y94.784 E.00726
G1 X102.548 Y94.724 E.01011
G1 X102.95 Y94.526 E.01794
G1 X103.405 Y94.383 E.01911
G1 X104.202 Y94.29 E.03214
G1 X106.888 Y94.29 E.10758
G1 X107.427 Y94.331 E.02166
G1 X107.93 Y94.45 E.02069
G1 X108.406 Y94.645 E.0206
G1 X108.914 Y94.96 E.02395
G1 X109.389 Y95.367 E.02503
G1 X109.665 Y95.512 E.01251
G1 X109.872 Y95.554 E.00846
G1 X110.07 Y95.517 E.00804
G1 X110.245 Y95.449 E.00754
G1 X110.459 Y95.305 E.01035
G1 X110.555 Y95.205 E.00552
G1 X110.88 Y94.947 E.01663
G1 X111.444 Y94.611 E.02633
G1 X111.922 Y94.428 E.02047
G1 X112.409 Y94.323 E.01995
G1 X112.875 Y94.29 E.01873
G1 X115.626 Y94.29 E.11017
G1 X116.188 Y94.335 E.02261
G1 X116.688 Y94.457 E.02063
G1 X117.182 Y94.665 E.02147
G1 X117.7 Y94.98 E.02427
G1 X118.121 Y95.345 E.02233
G1 X118.276 Y95.443 E.00733
G1 X118.396 Y95.494 E.00522
G1 X118.604 Y95.537 E.00852
G1 X118.782 Y95.509 E.00719
G1 X118.947 Y95.454 E.00697
G1 X119.152 Y95.334 E.00951
G1 X119.508 Y95.016 E.01915
G1 X120.067 Y94.667 E.02637
G1 X120.543 Y94.464 E.02075
G1 X121.042 Y94.339 E.02061
G1 X121.631 Y94.29 E.02368
G1 X124.35 Y94.29 E.10892
G1 X124.913 Y94.335 E.02261
G1 X125.392 Y94.45 E.01974
G1 X125.868 Y94.645 E.0206
G1 X126.377 Y94.96 E.02395
G1 X126.851 Y95.367 E.02503
G1 X127.128 Y95.512 E.01251
G1 X127.335 Y95.554 E.00846
G1 X127.532 Y95.517 E.00804
G1 X127.708 Y95.449 E.00754
G1 X127.922 Y95.305 E.01035
G1 X128.015 Y95.208 E.00538
G1 X128.445 Y94.876 E.02177
G1 X128.902 Y94.613 E.02112
G1 X129.384 Y94.428 E.02069
G1 X129.871 Y94.323 E.01995
G1 X130.338 Y94.29 E.01873
G1 X131.551 Y94.29 E.04862
G1 X132.09 Y94.331 E.02166
G1 X132.611 Y94.457 E.02143
G1 X133.179 Y94.704 E.02484
G1 X133.69 Y95.031 E.02429
G1 X134.086 Y95.393 E.02152
G1 X134.407 Y95.799 E.02069
G1 X134.65 Y96.227 E.01974
G1 X134.831 Y96.706 E.0205
G1 X134.949 Y97.315 E.02483
G1 X134.968 Y97.916 E.02409
G1 X134.898 Y98.425 E.0206
G1 X134.76 Y98.896 E.01965
G1 X130.911 Y109.286 E.44384
G1 X130.684 Y109.777 E.02166
G1 X130.383 Y110.226 E.02164
G1 X130.029 Y110.606 E.02082
G1 X129.68 Y110.885 E.01788
G1 X129.156 Y111.2 E.02449
G1 X128.679 Y111.388 E.02054
G1 X128.17 Y111.501 E.02088
G1 X127.693 Y111.536 E.01917
G1 X126.873 Y111.536 E.03283
G1 X126.334 Y111.494 E.02166
G1 X125.809 Y111.368 E.02165
G1 X125.351 Y111.178 E.01987
G1 X125.191 Y111.084 E.00745
G1 X124.899 Y110.987 E.01231
G1 X124.603 Y110.997 E.01187
G1 X124.411 Y111.068 E.00821
G1 X124.195 Y111.184 E.00981
G1 X123.732 Y111.352 E.01974
G1 X123.194 Y111.455 E.02193
G1 X122.824 Y111.475 E.01483
G1 X121.387 Y111.475 E.05758
G1 X120.848 Y111.433 E.02166
G1 X120.325 Y111.308 E.02155
G1 X119.818 Y111.093 E.02204
G1 X119.302 Y110.776 E.02427
G1 X119.152 Y110.647 E.00792
G1 X118.997 Y110.549 E.00733
G1 X118.877 Y110.498 E.00522
G1 X118.669 Y110.453 E.00852
G1 X118.491 Y110.48 E.00724
G1 X118.329 Y110.535 E.00685
G1 X117.453 Y111.097 E.04168
G1 X116.977 Y111.3 E.02075
G1 X116.478 Y111.425 E.02061
G1 X115.889 Y111.475 E.02366
G1 X114.453 Y111.475 E.05754
G1 X113.914 Y111.433 E.02166
G1 X113.423 Y111.317 E.02019
G1 X112.694 Y110.995 E.03195
G1 X112.387 Y110.934 E.01251
G1 X112.177 Y110.953 E.00845
G1 X111.698 Y111.199 E.02158
G1 X111.216 Y111.388 E.02072
G1 X110.708 Y111.501 E.02088
G1 X110.22 Y111.536 E.01958
G1 X109.399 Y111.536 E.03289
G1 X108.848 Y111.491 E.02213
G1 X108.346 Y111.368 E.02069
G1 X107.871 Y111.169 E.02063
G1 X107.396 Y110.875 E.02237
G1 X106.994 Y110.543 E.02092
G1 X106.462 Y109.914 E.03296
G1 X106.363 Y109.832 E.00515
G1 X106.177 Y109.732 E.00848
G1 X105.918 Y109.7 E.01042
G1 X105.614 Y109.766 E.01248
G1 X105.54 Y109.806 E.00336
G1 X104.808 Y110.378 E.03722
G1 X104.542 Y110.552 E.01273
G1 X104.082 Y110.807 E.02106
G1 X103.785 Y110.945 E.01312
G1 X103.32 Y111.124 E.01997
G1 X102.99 Y111.226 E.01383
G1 X102.538 Y111.335 E.01861
G1 X102.176 Y111.398 E.01473
G1 X101.746 Y111.447 E.01736
G1 X101.137 Y111.475 E.02441
G1 X98.985 Y111.475 E.08619
G1 X98.434 Y111.43 E.02213
G1 X97.938 Y111.308 E.02048
G1 X97.458 Y111.1 E.02093
G1 X97.252 Y111.052 E.00849
G1 X97.099 Y111.046 E.00615
G1 X96.889 Y111.075 E.00849
G1 X96.301 Y111.271 E.02484
G1 X95.908 Y111.377 E.01631
G1 X95.513 Y111.463 E.01617
G1 X94.93 Y111.553 E.02365
G1 X94.543 Y111.589 E.01553
G1 X93.956 Y111.611 E.02355
G1 X93.003 Y111.557 E.03823
G1 X92.459 Y111.477 E.02201
G1 X91.895 Y111.35 E.02315
G1 X91.374 Y111.192 E.02182
G1 X90.822 Y110.979 E.02369
G1 X90.339 Y110.75 E.02142
G1 X89.845 Y110.47 E.02276
G1 X89.403 Y110.177 E.02121
G1 X88.949 Y109.827 E.02297
G1 X88.574 Y109.496 E.02004
G1 X88.15 Y109.066 E.0242
G1 X87.835 Y108.702 E.01927
G1 X87.475 Y108.225 E.02396
G1 X87.214 Y107.831 E.01893
G1 X86.907 Y107.297 E.02465
G1 X86.704 Y106.889 E.01827
G1 X86.457 Y106.303 E.02545
G1 X86.312 Y105.895 E.01735
G1 X86.124 Y105.246 E.02707
G1 X86.03 Y104.835 E.01687
G1 X85.917 Y104.162 E.02737
G1 X85.87 Y103.745 E.0168
G1 X85.83 Y103.026 E.02884
G1 X85.83 Y102.628 E.01596
G1 X85.867 Y101.923 E.02828
G1 X85.912 Y101.509 E.01666
G1 X86.022 Y100.844 E.027
G1 X86.117 Y100.424 E.01728
G1 X86.298 Y99.794 E.02622
G1 X86.444 Y99.38 E.01758
G1 X86.688 Y98.8 E.02523
G1 X86.891 Y98.391 E.01827
G1 X87.19 Y97.872 E.024
G1 X87.458 Y97.469 E.01937
G1 X87.817 Y96.999 E.02371
G1 X88.141 Y96.629 E.0197
G1 X88.503 Y96.267 E.02049
G1 X88.861 Y96.626 F30000
G1 F6000
G1 X88.886 Y96.601 E.00138
G1 X89.259 Y96.277 E.01979
G1 X89.669 Y95.967 E.02062
G1 X90.095 Y95.69 E.02033
G1 X90.543 Y95.443 E.02052
G1 X90.991 Y95.235 E.0198
G1 X91.495 Y95.044 E.02157
G1 X91.992 Y94.897 E.02075
G1 X92.51 Y94.784 E.02124
G1 X92.997 Y94.713 E.01972
G1 X93.587 Y94.67 E.02369
G1 X94.167 Y94.666 E.02323
G1 X94.946 Y94.719 E.03129
G1 X95.492 Y94.795 E.02208
G1 X96.15 Y94.933 E.02693
G1 X96.83 Y95.131 E.02835
G1 X97.094 Y95.172 E.0107
G1 X97.535 Y95.134 E.01772
G1 X98.188 Y94.911 E.02764
G1 X98.651 Y94.818 E.01894
G1 X99.009 Y94.797 E.01436
G1 X100.144 Y94.797 E.04547
G1 X100.619 Y94.833 E.01906
G1 X101.054 Y94.937 E.01793
G1 X101.781 Y95.238 E.03153
G1 X102.144 Y95.295 E.0147
G1 X102.437 Y95.274 E.01179
G1 X102.656 Y95.219 E.00902
G1 X103.132 Y95.002 E.02098
G1 X103.498 Y94.886 E.01536
G1 X104.223 Y94.799 E.02926
G1 X106.862 Y94.797 E.10572
G1 X107.337 Y94.833 E.01906
G1 X107.763 Y94.932 E.01751
G1 X108.185 Y95.105 E.01829
G1 X108.623 Y95.378 E.02066
G1 X109.048 Y95.742 E.02242
G1 X109.421 Y95.957 E.01725
G1 X109.758 Y96.048 E.01398
G1 X109.976 Y96.05 E.00874
G1 X110.26 Y95.987 E.01164
G1 X110.54 Y95.862 E.01227
G1 X110.736 Y95.73 E.00949
G1 X111.177 Y95.36 E.02306
G1 X111.679 Y95.064 E.02332
G1 X112.078 Y94.913 E.01711
G1 X112.47 Y94.828 E.01604
G1 X112.888 Y94.797 E.01679
G1 X115.599 Y94.797 E.1086
G1 X116.119 Y94.84 E.0209
G1 X116.54 Y94.945 E.01739
G1 X116.961 Y95.124 E.0183
G1 X117.389 Y95.385 E.02009
G1 X117.78 Y95.721 E.02067
G1 X118.086 Y95.912 E.01442
G1 X118.303 Y95.992 E.00928
G1 X118.487 Y96.031 E.00752
G1 X118.694 Y96.036 E.00832
G1 X118.949 Y95.988 E.01041
G1 X119.211 Y95.887 E.01121
G1 X119.499 Y95.704 E.01367
G1 X119.824 Y95.416 E.01741
G1 X120.312 Y95.114 E.02299
G1 X120.717 Y94.944 E.01758
G1 X121.138 Y94.84 E.01737
G1 X121.659 Y94.797 E.02095
G1 X124.324 Y94.797 E.10673
G1 X124.844 Y94.84 E.02093
G1 X125.247 Y94.939 E.0166
G1 X125.648 Y95.105 E.01739
G1 X126.085 Y95.378 E.02066
G1 X126.51 Y95.742 E.02242
G1 X126.884 Y95.957 E.01725
G1 X127.221 Y96.048 E.01398
G1 X127.439 Y96.05 E.00874
G1 X127.722 Y95.987 E.01164
G1 X128.002 Y95.862 E.01227
G1 X128.2 Y95.729 E.00954
G1 X128.737 Y95.293 E.02772
G1 X129.132 Y95.067 E.01821
G1 X129.541 Y94.913 E.01752
G1 X129.954 Y94.825 E.01691
G1 X130.361 Y94.797 E.01635
G1 X131.526 Y94.797 E.04666
G1 X131.999 Y94.833 E.019
G1 X132.461 Y94.945 E.01905
G1 X132.929 Y95.148 E.02042
G1 X133.369 Y95.428 E.02088
G1 X133.722 Y95.75 E.01914
G1 X133.991 Y96.093 E.01746
G1 X134.194 Y96.454 E.01661
G1 X134.337 Y96.833 E.01622
G1 X134.441 Y97.359 E.02147
G1 X134.458 Y97.901 E.02174
G1 X134.397 Y98.33 E.01734
G1 X134.277 Y98.742 E.01719
G1 X130.44 Y109.097 E.44235
G1 X130.234 Y109.538 E.0195
